svg/fluentui-system-icons/ic_fluent_text_bullet_list_square_warning_20_regular.svg

<svg width="20" height="20" viewBox="0 0 20 20" fill="none" xmlns="http://www.w3.org/2000/svg">
<path d="M6.75 8C7.16421 8 7.5 7.66421 7.5 7.25C7.5 6.83579 7.16421 6.5 6.75 6.5C6.33579 6.5 6 6.83579 6 7.25C6 7.66421 6.33579 8 6.75 8ZM7.5 10.25C7.5 10.6642 7.16421 11 6.75 11C6.33579 11 6 10.6642 6 10.25C6 9.83579 6.33579 9.5 6.75 9.5C7.16421 9.5 7.5 9.83579 7.5 10.25ZM6.75 14C7.16421 14 7.5 13.6642 7.5 13.25C7.5 12.8358 7.16421 12.5 6.75 12.5C6.33579 12.5 6 12.8358 6 13.25C6 13.6642 6.33579 14 6.75 14ZM9 7.5C9 7.22386 9.22386 7 9.5 7H13.5C13.7761 7 14 7.22386 14 7.5C14 7.77614 13.7761 8 13.5 8H9.5C9.22386 8 9 7.77614 9 7.5ZM9.5 10C9.22386 10 9 10.2239 9 10.5C9 10.7761 9.22386 11 9.5 11H12.2671L12.7131 10.107C12.7314 10.0704 12.7505 10.0347 12.7704 10H9.5ZM9.5 13H11.2683L10.7688 14H9.5C9.22386 14 9 13.7761 9 13.5C9 13.2239 9.22386 13 9.5 13ZM5.75 16H9.76996L9.27052 17H5.75C4.23122 17 3 15.7688 3 14.25V5.75C3 4.23122 4.23122 3 5.75 3H14.25C15.7688 3 17 4.23122 17 5.75V11.5207L16.2929 10.1063C16.2109 9.94228 16.112 9.79651 16 9.66898V5.75C16 4.7835 15.2165 4 14.25 4H5.75C4.7835 4 4 4.7835 4 5.75V14.25C4 15.2165 4.7835 16 5.75 16ZM13.6029 10.5536C13.9716 9.81564 15.0246 9.81544 15.3935 10.5532L18.893 17.5517C19.2258 18.2171 18.7419 19 17.9978 19H11.0022C10.2583 19 9.77438 18.2174 10.1068 17.552L13.6029 10.5536ZM14.9983 12.4951C14.9983 12.2187 14.7743 11.9947 14.4979 11.9947C14.2215 11.9947 13.9975 12.2187 13.9975 12.4951V15.4974C13.9975 15.7738 14.2215 15.9978 14.4979 15.9978C14.7743 15.9978 14.9983 15.7738 14.9983 15.4974V12.4951ZM14.4979 17.9993C14.7743 17.9993 14.9983 17.7753 14.9983 17.499C14.9983 17.2226 14.7743 16.9986 14.4979 16.9986C14.2215 16.9986 13.9975 17.2226 13.9975 17.499C13.9975 17.7753 14.2215 17.9993 14.4979 17.9993Z" fill="#212121"/>
</svg>

<svg xmlns="http://www.w3.org/2000/svg" width="20" height="20"><path d="M6.75 8a.75.75 0 1 0 0-1.5.75.75 0 0 0 0 1.5Zm.75 2.25a.75.75 0 1 1-1.5 0 .75.75 0 0 1 1.5 0ZM6.75 14a.75.75 0 1 0 0-1.5.75.75 0 0 0 0 1.5ZM9 7.5a.5.5 0 0 1 .5-.5h4a.5.5 0 0 1 0 1h-4a.5.5 0 0 1-.5-.5Zm.5 2.5a.5.5 0 0 0 0 1h2.767l.446-.893c.018-.037.038-.072.057-.107H9.5Zm0 3h1.768l-.5 1H9.5a.5.5 0 0 1 0-1Zm-3.75 3h4.02l-.5 1H5.75A2.75 2.75 0 0 1 3 14.25v-8.5A2.75 2.75 0 0 1 5.75 3h8.5A2.75 2.75 0 0 1 17 5.75v5.77l-.707-1.414A2.05 2.05 0 0 0 16 9.67V5.75A1.75 1.75 0 0 0 14.25 4h-8.5A1.75 1.75 0 0 0 4 5.75v8.5c0 .966.784 1.75 1.75 1.75Zm7.853-5.446a1 1 0 0 1 1.79 0l3.5 6.998A1 1 0 0 1 17.998 19h-6.996a1 1 0 0 1-.895-1.448l3.496-6.998Zm1.395 1.941a.5.5 0 1 0-1 0v3.002a.5.5 0 1 0 1 0v-3.002Zm-.5 5.504a.5.5 0 1 0 0-1 .5.5 0 0 0 0 1Z"/></svg>
